X:1
T:Les miens aussi
T:Les miens aussi
T:Tielman Susato
T:Source: Le XIième livre de Chansons---Anvers---T.Susato---1549. Editor: André Vierendeels (22/06/13).
C:Tielman Susato
%%score [ 1 [ 2 3 ] 4 ]
L:1/8
Q:1/4=80
M:2/2
K:C
V:1 treble nm="Superius" snm="S"
V:2 treble-8 nm="Tenor 1" snm="T 1"
V:3 treble-8 nm="Tenor 2" snm="T 2"
V:4 bass nm="Bassus" snm="B"
V:1
 z8 | z8 | z4 E4- | E4 A4 | A4 G4- | G4 c4 | A2 c2 B2 A2- | A2 G2 A4 | E4 z2 c2 | A2 c2 B2 A2 | %10
w: ||Les|_ miens|aus- si,|_ bri-|ef ver- ras de-|* * cli-|ner, le|miens aus- si, bri-|
 G2 B3 A A2- | A2 G2 A4 | z2 E2 G4 | F4 E4- | E4 z4 | z8 | z2 c2 d4- | d2 c2 A2 c2 | c2 c2 B2 G2 | %19
w: ef ver- ras de-|* cli- ner,|voi- vant|au vray,|_||voi- vant|_ au vray que|for- tu- n'en- vi-|
 A4 G2 A2 | A2 A2 G3 F | ED G2 F2 E2- | E2 D2 E4 | z4 z2 G2 | A2 B2 c4 | z2 B2 c2 d2 | e6 e2 | %27
w: eu- se, que|for- tu- n'en- *|* * vi- eu- *|* * se|de|nos- tre'a- mour,|de nos- tre'a-|mour veult|
 d2 c2 B2 A2 | d2 c4 BA | G4 z2 D2 | G2 G2 c4- | c2 B2 A3 G | F2 E2 D4 | C4 A,4 | z4 z2 A2 | %35
w: es- tre cu- ri-|eu- * * *|se par|ung dep- part|_ le fai- *|* re de-|cli- ner,|par|
 B2 c2 d4- | d2 c2 B2 A2- | AG FE DE F2- | FECD E2 F2- | F2 E4 D2 | E8- | E8- | E8- | E8 |] %44
w: ung dep- part|_ le fai- *||* * * * re de-|* * cli-|ner.|_|||
V:2
 z8 | z8 | z8 | z4 A4- | A4 e4 | e4 c4 | f4 d2 f2 | e3 d c2 e2- | e2 c2 d2 f2- | f2 e2 d4 | %10
w: |||Les|_ miens|aus- si,|bri- ef ver-|ras _ _ de-|* cli- ner, bri-|* ef ver-|
 B2 e4 d2 | e4 c4 | z2 A2 e4 | d4 c4- | c4 z4 | z2 d2 f4 | e4 d4 | z2 f2 f2 f2 | e2 c2 d2 e2- | %19
w: ras de- *|cli- ner,|voi- vant|au vray,|_|voi- vant|au vray|que for- tu-|n'en- vi- eu- *|
 e2 d2 e2 f2 | f2 e2 e4- | e2 c2 d2 e2 | A3 B c2 e2 | c2 d2 e4 | z2 g2 e2 c2 | g4 z2 g2 | %26
w: * * se, que|for- tu- n'en-|* vi- eu- *|* * se de|nos- tre'a- mour,|de nos- tre'a-|mour, de|
 e3 f g2 g2 | g2 e2 de f2- | fe e4 d2 | e2 e2 d2 d2 | e4 z2 A2 | e2 e2 f3 e | d2 c2 f2 f2 | %33
w: nos- * * tre'a-|mour veult es- * tre|_ cu- ri- eu-|se par ung dep-|part, par|ung dep- part le|fai- re de- cli-|
 e2 z A e2 e2 | e3 d c2 c2 | B2 A4 G2 | A2 c2 d2 e2 | f6 d2 | c2 c2 c2 A2- | AB c2 A4 | %40
w: ner, par ung dep-|part le fai- re|de- * cli-|ner, par ung dep-|part le|fai- re de- *|* * cli- ner,|
 z2 E2 A2 B2 | c3 B A2 G2 | A2 B2 c4 | B8 |] %44
w: par ung dep-|part le fai- re|de- * cli-|ner.|
V:3
 E8 | A4 A4 | G8 | c4 A2 d2- | dc A2 B4 | c3 B A3 G | F4 z4 | z4 c4 | A2 c2 B2 A2- | A2 G2 F4 | %10
w: Les|miens aus-|si,|bri- ef ver-|* * ras de-|* * * cli-|ner,|bri-|ef ver- ras de-|* * cli-|
 E2 G2 A4 | B4 A2 A2 | c6 B2 | A2 A2 A2 A2 | G3 F E2 D2 | F4 D2 A2 | A2 A2 F2 D2 | F3 G A4 | z8 | %19
w: ner,- voi- ant|_ _ au|vray que|for- tu- n'en- vi-|eu- * * *|* se, que|for- tu- n'en- vi-|eu- * se,||
 z8 | z2 c2 c2 c2 | B2 G2 A3 G | F4 E2 G2 | A2 B2 c2 z B | c2 d2 e2 e2 | e3 d c2 B2 | A2 G2 c4 | %27
w: |que for- tu-|n'en- vi- eu- *|* se de|nos- tre'a- mour, de|nos- tre'a- mour veult|es- tre cu- ri-|eu- * *|
 B2 G4 A2- | A2 G2 A4 | B2 c4 B2 | c3 B AG F2 | E4 z4 | z4 D4 | A2 A2 c4- | c2 B2 A3 G | F2 E2 D4 | %36
w: |* * se-|par ung dep-||part|par|ung dep- part|_ le fai- re|de- * cli-|
 E2 A2 B2 c2 | d3 c B2 A2- | AG F2 E2 A2- | AG GF/E/ F4 | E8- | E4 z2 c2- | c2 B2 A4 | ^G8 |] %44
w: ner, par ung dep-|part _ _ le|_ _ fai- re de-|* * * * * cli-|ner,|_ de-|* * cli-|ner.|
V:4
 z8 | A,,8 | E,4 E,4 | C,4 F,4 | D,2 F,2 E,3 D, | C,4 z4 | z8 | C4 A,2 C2- | CB, A,2 G,2 F,2- | %9
w: |Les|miens aus-|si, brief|ver- ras de- cli-|ner,||bri- ef ver-|* * * ras de-|
 F,2 C,2 D,4 | E,4 F,4 | E,4 A,,4- | A,,4 z2 E,2 | F,2 D,2 A,2 A,,2 | C,6 B,,2 | A,,2 D,2 D,2 D,2 | %16
w: |* cli-|* ner,|_ voi-|ant au vray, voi-|ant au|vray, que for- tu-|
"^b" C,2 A,,2 B,,4 | F,,4 z2 A,2 | A,2 A,2 G,2 E,2 | F,4 E,2 z2 | z4 z2 E,2 | E,2 E,2 D,2 C,2 | %22
w: n'en- vi- eu-|se, que|for- tu- n'en- vi-|eu- se,|que|for- tu- n'en- vi-|
 D,4 A,,2 C,2 | F,2 D,2 C,2 E,2 | A,2 G,2 C,4 | z2 G,2 A,2 G,2 | C2 C,2 C,D, E,F, | %27
w: eu- se de|nos- tre'a- mour, de|nos- tre'a- mour,|de nos- tre'a-|mour veult es- * * *|
 G,2 C,2 G,2 F,2 | D,2 E,2 F,4 | E,3 D,/C,/ G,4 | C,4 z4 | z8 | z8 | z4 A,,4 | E,2 E,2 F,3 E, | %35
w: * tre cu- ri-|eu- * *||se|||par|ung dep- part le|
 D,2 C,2 B,,2 B,,2 | A,,4 z2 A,,2 | D,6 D,2 | F,4 C,2 D,2- | D,2 C,2 D,2 D,2 | A,,4 z2 E,,2 | %41
w: fai- re de- cli-|ner, par|ung dep-|part le fai-|* re de- cli-|ner, par|
 A,,2 A,,2 C,3 B,, | A,,2 G,,2 A,,2 A,,2 | E,,8 |] %44
w: ung dep- part le|fai- re de- cli-|ner.|

